img/help3.svg

<svg width="140" height="140" viewBox="0 0 140 140" fill="none" xmlns="http://www.w3.org/2000/svg">
<path d="M134.277 137.841H5.72278C3.69224 137.841 2.04614 136.195 2.04614 134.165V19.4897H137.954V134.165C137.954 136.195 136.308 137.841 134.277 137.841Z" fill="#FAF7F7"/>
<path d="M137.954 19.4896H2.04614V5.83582C2.04614 3.80527 3.69224 2.15918 5.72278 2.15918H134.277C136.308 2.15918 137.954 3.80527 137.954 5.83582V19.4896Z" fill="#C5D3DD"/>
<path d="M137.954 19.4897V134.166C137.954 136.195 136.309 137.84 134.277 137.84H128.821C130.853 137.84 132.498 136.195 132.498 134.166V19.4897H137.954Z" fill="#EDE1DD"/>
<path d="M137.954 5.83612V19.4897H132.498V5.83612C132.498 3.8064 130.853 2.15894 128.821 2.15894H134.277C136.309 2.15894 137.954 3.80667 137.954 5.83612Z" fill="#B6C4CF"/>
<path d="M70 97.2798C87.3071 97.2798 101.337 83.2496 101.337 65.9425C101.337 48.6354 87.3071 34.6052 70 34.6052C52.6929 34.6052 38.6627 48.6354 38.6627 65.9425C38.6627 83.2496 52.6929 97.2798 70 97.2798Z" fill="#FF9A02"/>
<path d="M101.336 65.9415C101.336 83.2504 87.3061 97.2805 70 97.2805C66.1098 97.2805 62.3834 96.5712 58.9463 95.2726C60.725 95.5863 62.5554 95.7501 64.4241 95.7501C81.7302 95.7501 95.7603 81.72 95.7603 64.4111C95.7603 50.9949 87.3307 39.5483 75.4778 35.0828C90.1734 37.6744 101.336 50.5041 101.336 65.9415Z" fill="#FF9A02"/>
<path d="M65.628 80.3798C64.3071 80.3798 63.0356 79.8671 62.0829 78.9464L53.5872 70.7354C51.5616 68.7773 51.5064 65.5477 53.4644 63.5221C55.4223 61.4968 58.6513 61.4404 60.678 63.3993L65.4208 67.9832L79.1194 53.1462C81.0305 51.076 84.2582 50.9475 86.3281 52.8586C88.3977 54.7699 88.5268 57.9973 86.6155 60.0672L69.3763 78.7389C68.445 79.7479 67.1462 80.3385 65.7735 80.3779C65.7248 80.3792 65.6764 80.3798 65.628 80.3798Z" fill="#FAF7F7"/>
<path d="M137.954 33.6247C139.084 33.6247 140 32.7087 140 31.5789V5.83581C140 2.68034 137.433 0.113037 134.277 0.113037H5.7225C2.56703 0.113037 0 2.68034 0 5.83581V134.164C0 137.32 2.56703 139.887 5.7225 139.887H134.277C137.433 139.887 140 137.32 140 134.164V40.9966C140 39.8668 139.084 38.9507 137.954 38.9507C136.824 38.9507 135.908 39.8668 135.908 40.9966V134.164C135.908 135.064 135.177 135.795 134.277 135.795H5.7225C4.82344 135.795 4.09172 135.064 4.09172 134.164V21.5355H135.908V31.5789C135.908 32.7087 136.824 33.6247 137.954 33.6247ZM4.09199 17.4435V5.83581C4.09199 4.93647 4.82344 4.20503 5.72277 4.20503H134.277C135.177 4.20503 135.908 4.93647 135.908 5.83581V17.4435H4.09199Z" fill="black"/>
<path d="M105.273 13.5526C106.78 13.5526 108.002 12.3312 108.002 10.8245C108.002 9.31784 106.78 8.09644 105.273 8.09644C103.767 8.09644 102.545 9.31784 102.545 10.8245C102.545 12.3312 103.767 13.5526 105.273 13.5526Z" fill="black"/>
<path d="M115.983 13.5369C117.47 13.2958 118.48 11.8949 118.239 10.4078C117.998 8.92067 116.597 7.91057 115.11 8.15164C113.623 8.39271 112.613 9.79366 112.854 11.2808C113.095 12.7678 114.496 13.778 115.983 13.5369Z" fill="black"/>
<path d="M125.844 13.5526C127.351 13.5526 128.572 12.3312 128.572 10.8245C128.572 9.31784 127.351 8.09644 125.844 8.09644C124.337 8.09644 123.116 9.31784 123.116 10.8245C123.116 12.3312 124.337 13.5526 125.844 13.5526Z" fill="black"/>
<path d="M70 32.5596C51.5925 32.5596 36.6168 47.5352 36.6168 65.9427C36.6168 74.3706 39.766 82.4174 45.4839 88.6014C46.2511 89.431 47.5458 89.4816 48.3752 88.7146C49.2048 87.9473 49.2554 86.6529 48.4884 85.8233C43.4716 80.3977 40.7088 73.3376 40.7088 65.9427C40.7088 49.7916 53.8486 36.6516 70 36.6516C86.1514 36.6516 99.2912 49.7916 99.2912 65.9427C99.2912 82.0941 86.1514 95.2339 70 95.2339C64.9113 95.2339 59.8998 93.9094 55.5073 91.4036C54.5264 90.8439 53.2768 91.1857 52.7166 92.167C52.1566 93.1484 52.4983 94.398 53.48 94.958C58.4888 97.8154 64.2015 99.3259 70 99.3259C88.4075 99.3259 103.383 84.3503 103.383 65.9427C103.383 47.5352 88.4075 32.5596 70 32.5596Z" fill="black"/>
<path d="M60.661 80.4177C62.0422 81.7526 63.7211 82.4258 65.628 82.4119C67.5858 82.3977 69.527 81.5921 70.8797 80.1268C70.8808 80.1254 88.1182 61.4551 88.1182 61.4551C89.4135 60.0523 90.0848 58.2293 90.0091 56.3216C89.9328 54.4141 89.1188 52.6501 87.716 51.3548C86.3133 50.0598 84.4919 49.3902 82.5825 49.4646C80.6747 49.5406 78.9111 50.3552 77.6158 51.7576L65.3374 65.0565L62.0999 61.9273C59.2657 59.1891 54.7321 59.2662 51.9931 62.0996C49.2546 64.9332 49.332 69.4668 52.1653 72.2061C52.1653 72.2066 60.6534 80.4103 60.661 80.4177ZM54.9355 64.9441C55.5341 64.3248 56.3331 64.0136 57.1331 64.0136C57.8982 64.0136 58.6641 64.2983 59.2564 64.8706L63.9992 69.4542C64.3951 69.837 64.9283 70.0438 65.4793 70.0282C66.0297 70.0126 66.5503 69.7755 66.9241 69.3708L80.6225 54.5338C81.1759 53.9342 81.9301 53.5861 82.7455 53.5536C83.5592 53.5183 84.3404 53.8079 84.9401 54.3616C85.5395 54.9153 85.8878 55.6691 85.9201 56.4848C85.9526 57.3002 85.6658 58.0798 85.1118 58.6791C85.1118 58.6791 67.8729 77.3508 67.8729 77.3511C66.7007 78.6209 64.732 78.6617 63.5045 77.475C63.5037 77.4741 55.0091 69.2642 55.0091 69.2642C53.7977 68.0936 53.7649 66.1555 54.9355 64.9441Z" fill="black"/>
<path d="M86.6936 105.173C85.5635 105.173 84.6478 106.089 84.6478 107.219V122.725C84.6478 123.855 85.5638 124.771 86.6936 124.771C87.8237 124.771 88.7398 123.855 88.7398 122.725V118.964L94.1648 124.197C94.5618 124.581 95.0737 124.771 95.585 124.771C96.1209 124.771 96.6561 124.562 97.0577 124.146C97.8422 123.333 97.819 122.037 97.0058 121.253L90.1742 114.662L96.4195 108.921C97.2516 108.156 97.306 106.862 96.5412 106.03C95.7767 105.198 94.4825 105.144 93.6504 105.908L88.7398 110.422V107.219C88.7398 106.089 87.8237 105.173 86.6936 105.173Z" fill="black"/>
<path d="M43.508 124.771C44.6381 124.771 45.5539 123.855 45.5539 122.726V107.219C45.5539 106.09 44.6378 105.174 43.508 105.174C42.3782 105.174 41.4621 106.09 41.4621 107.219V112.661H34.8239V107.219C34.8239 106.09 33.9082 105.174 32.778 105.174C31.6479 105.174 30.7322 106.09 30.7322 107.219V122.726C30.7322 123.855 31.6482 124.771 32.778 124.771C33.9082 124.771 34.8239 123.855 34.8239 122.726V116.753H41.4621V122.726C41.4621 123.855 42.3779 124.771 43.508 124.771Z" fill="black"/>
<path d="M58.8735 109.407C60.0036 109.407 60.9194 108.491 60.9194 107.361C60.9194 106.231 60.0034 105.315 58.8735 105.315H52.3996C51.2695 105.315 50.3538 106.231 50.3538 107.361V122.725C50.3538 123.855 51.2695 124.771 52.3996 124.771H58.8735C60.0036 124.771 60.9194 123.855 60.9194 122.725C60.9194 121.596 60.0034 120.68 58.8735 120.68H54.4458V117.089H58.3967C59.5268 117.089 60.4425 116.173 60.4425 115.044C60.4425 113.914 59.5265 112.998 58.3967 112.998H54.4458V109.407H58.8735V109.407Z" fill="black"/>
<path d="M109.893 109.407C111.023 109.407 111.938 108.491 111.938 107.361C111.938 106.231 111.022 105.315 109.893 105.315H103.419C102.289 105.315 101.373 106.231 101.373 107.361V122.725C101.373 123.855 102.289 124.771 103.419 124.771H109.893C111.023 124.771 111.938 123.855 111.938 122.725C111.938 121.596 111.022 120.68 109.893 120.68H105.465V117.089H109.415C110.546 117.089 111.461 116.173 111.461 115.044C111.461 113.914 110.545 112.998 109.415 112.998H105.465V109.407H109.893V109.407Z" fill="black"/>
<path d="M117.726 105.632C117.183 105.632 116.662 105.848 116.278 106.233C115.895 106.617 115.679 107.139 115.68 107.682V107.693V107.694V122.481C115.68 122.614 115.694 122.743 115.718 122.869C115.753 123.361 115.963 123.827 116.316 124.177C116.699 124.558 117.217 124.771 117.757 124.771H117.765C117.894 124.771 120.933 124.759 122.148 124.738C126.762 124.657 130.111 120.647 130.111 115.202C130.111 109.478 126.846 105.632 121.988 105.632H117.726V105.632ZM126.019 115.202C126.019 118.915 124.039 120.612 122.077 120.646C121.55 120.656 120.643 120.663 119.796 120.668C119.79 118.9 119.783 116.438 119.783 115.185C119.783 114.135 119.779 111.565 119.776 109.724H121.988C125.728 109.724 126.019 113.917 126.019 115.202Z" fill="black"/>
<path d="M19.6886 109.265C20.8324 109.265 21.9351 109.602 22.878 110.239C23.8142 110.871 25.086 110.625 25.7187 109.689C26.3512 108.752 26.1051 107.481 25.1685 106.848C23.5468 105.752 21.6519 105.173 19.6886 105.173C14.2855 105.173 9.8894 109.569 9.8894 114.972C9.8894 120.375 14.2855 124.771 19.6886 124.771C21.8509 124.771 23.7932 124.059 25.3042 122.714C25.6003 122.45 25.8819 122.16 26.1409 121.851C26.8666 120.985 26.7531 119.694 25.8874 118.968C25.0214 118.242 23.7308 118.356 23.0048 119.222C22.8736 119.379 22.7314 119.525 22.5829 119.658C21.8219 120.335 20.848 120.679 19.6886 120.679C16.5416 120.679 13.9814 118.119 13.9814 114.972C13.9814 111.825 16.5416 109.265 19.6886 109.265Z" fill="black"/>
<path d="M74.218 109.265C75.3618 109.265 76.4646 109.602 77.4071 110.239C78.3436 110.871 79.6154 110.625 80.2479 109.689C80.8806 108.753 80.6345 107.481 79.6983 106.848C78.0768 105.753 76.1819 105.174 74.218 105.174C68.8149 105.174 64.4191 109.569 64.4191 114.972C64.4191 120.376 68.8149 124.771 74.218 124.771C76.3804 124.771 78.3226 124.06 79.8336 122.714C80.1297 122.45 80.4114 122.16 80.6703 121.851C81.396 120.985 81.2826 119.695 80.4169 118.969C79.5506 118.243 78.2602 118.356 77.5343 119.222C77.403 119.379 77.2608 119.526 77.1124 119.658C76.3517 120.336 75.3777 120.679 74.2183 120.679C71.0716 120.679 68.5114 118.119 68.5114 114.972C68.5111 111.825 71.071 109.265 74.218 109.265Z" fill="black"/>
</svg>

<svg width="140" height="140" fill="none" xmlns="http://www.w3.org/2000/svg"><path d="M134.277 137.841H5.723a3.676 3.676 0 01-3.677-3.676V19.49h135.908v114.675a3.676 3.676 0 01-3.677 3.676z" fill="#FAF7F7"/><path d="M137.954 19.49H2.046V5.836a3.677 3.677 0 013.677-3.677h128.554a3.677 3.677 0 013.677 3.677V19.49z" fill="#C5D3DD"/><path d="M137.954 19.49v114.676a3.675 3.675 0 01-3.677 3.674h-5.456a3.675 3.675 0 003.677-3.674V19.49h5.456z" fill="#EDE1DD"/><path d="M137.954 5.836V19.49h-5.456V5.836a3.677 3.677 0 00-3.677-3.677h5.456a3.677 3.677 0 013.677 3.677z" fill="#B6C4CF"/><path d="M70 97.28c17.307 0 31.337-14.03 31.337-31.338 0-17.307-14.03-31.337-31.337-31.337-17.307 0-31.337 14.03-31.337 31.337C38.663 83.25 52.693 97.28 70 97.28z" fill="#FF9A02"/><path d="M101.336 65.942c0 17.308-14.03 31.339-31.336 31.339-3.89 0-7.617-.71-11.054-2.008a31.52 31.52 0 005.478.477c17.306 0 31.336-14.03 31.336-31.339 0-13.416-8.43-24.863-20.282-29.328 14.695 2.591 25.858 15.421 25.858 30.859z" fill="#FF9A02"/><path d="M65.628 80.38a5.101 5.101 0 01-3.545-1.434l-8.496-8.21a5.101 5.101 0 017.091-7.337l4.743 4.584 13.698-14.837a5.101 5.101 0 117.496 6.921L69.376 78.74a5.102 5.102 0 01-3.748 1.64z" fill="#FAF7F7"/><path d="M137.954 33.625c1.13 0 2.046-.916 2.046-2.046V5.836a5.73 5.73 0 00-5.723-5.723H5.723A5.73 5.73 0 000 5.836v128.328a5.729 5.729 0 005.723 5.723h128.554a5.73 5.73 0 005.723-5.723V40.997a2.046 2.046 0 00-4.092 0v93.167c0 .9-.731 1.631-1.631 1.631H5.723c-.9 0-1.631-.731-1.631-1.631V21.536h131.816v10.043c0 1.13.916 2.046 2.046 2.046zM4.092 17.444V5.835c0-.9.731-1.631 1.63-1.631h128.555c.9 0 1.631.731 1.631 1.63v11.608H4.092z" fill="#000"/><path d="M105.273 13.553a2.729 2.729 0 100-5.458 2.729 2.729 0 000 5.458zm10.71-.016a2.728 2.728 0 10-.873-5.385 2.728 2.728 0 00.873 5.385zm9.861.016a2.728 2.728 0 100-5.456 2.728 2.728 0 000 5.456zM70 32.56c-18.407 0-33.383 14.975-33.383 33.383A33.28 33.28 0 0045.484 88.6a2.046 2.046 0 003.004-2.778 29.199 29.199 0 01-7.78-19.88c0-16.151 13.14-29.291 29.292-29.291 16.151 0 29.291 13.14 29.291 29.29 0 16.152-13.14 29.292-29.291 29.292a29.29 29.29 0 01-14.493-3.83 2.046 2.046 0 00-2.027 3.554A33.39 33.39 0 0070 99.326c18.407 0 33.383-14.976 33.383-33.383 0-18.408-14.975-33.383-33.383-33.383z" fill="#000"/><path d="M60.661 80.418c1.381 1.335 3.06 2.008 4.967 1.994 1.958-.014 3.899-.82 5.252-2.285 0-.002 17.238-18.672 17.238-18.672a7.102 7.102 0 001.891-5.133 7.102 7.102 0 00-2.293-4.967 7.105 7.105 0 00-5.133-1.89 7.102 7.102 0 00-4.967 2.293L65.337 65.056 62.1 61.928c-2.834-2.738-7.368-2.66-10.107.173-2.738 2.833-2.661 7.367.172 10.106l8.496 8.212zm-5.726-15.474a3.047 3.047 0 012.198-.93c.765 0 1.531.284 2.123.857L64 69.454a2.045 2.045 0 002.925-.083l13.698-14.837a3.035 3.035 0 012.124-.98 3.027 3.027 0 012.194.808c.6.553.948 1.307.98 2.123a3.033 3.033 0 01-.808 2.194l-17.24 18.672a3.052 3.052 0 01-4.367.124l-8.496-8.21a3.059 3.059 0 01-.074-4.32zm31.759 40.229c-1.13 0-2.046.916-2.046 2.046v15.506a2.046 2.046 0 104.092 0v-3.761l5.425 5.233c.397.384.909.574 1.42.574a2.046 2.046 0 001.42-3.518l-6.83-6.591 6.245-5.741a2.046 2.046 0 10-2.77-3.013l-4.91 4.514v-3.203c0-1.13-.916-2.046-2.046-2.046zm-43.186 19.598c1.13 0 2.046-.916 2.046-2.045v-15.507a2.046 2.046 0 00-4.092 0v5.442h-6.638v-5.442a2.046 2.046 0 00-4.092 0v15.507a2.046 2.046 0 004.092 0v-5.973h6.638v5.973c0 1.129.916 2.045 2.046 2.045zm15.365-15.364a2.046 2.046 0 100-4.092H52.4c-1.13 0-2.046.916-2.046 2.046v15.364c0 1.13.916 2.046 2.046 2.046h6.474a2.046 2.046 0 100-4.091h-4.428v-3.591h3.95a2.046 2.046 0 100-4.091h-3.95v-3.591h4.428zm51.02 0a2.045 2.045 0 000-4.092h-6.474c-1.13 0-2.046.916-2.046 2.046v15.364c0 1.13.916 2.046 2.046 2.046h6.474a2.045 2.045 0 000-4.091h-4.428v-3.591h3.95a2.045 2.045 0 100-4.091h-3.95v-3.591h4.428zm7.833-3.775a2.045 2.045 0 00-2.046 2.05v14.799c0 .133.014.262.038.388a2.045 2.045 0 002.039 1.902h.008c.129 0 3.168-.012 4.383-.033 4.614-.081 7.963-4.091 7.963-9.536 0-5.724-3.265-9.57-8.123-9.57h-4.262zm8.293 9.57c0 3.713-1.98 5.41-3.942 5.444-.527.01-1.434.017-2.281.022-.006-1.768-.013-4.23-.013-5.483 0-1.05-.004-3.62-.007-5.461h2.212c3.74 0 4.031 4.193 4.031 5.478zm-106.33-5.937c1.143 0 2.246.337 3.189.974a2.047 2.047 0 002.29-3.391 9.75 9.75 0 00-5.48-1.675c-5.402 0-9.799 4.396-9.799 9.799s4.397 9.799 9.8 9.799c2.162 0 4.104-.712 5.615-2.057a8.32 8.32 0 00.837-.863 2.047 2.047 0 00-3.136-2.629 4.219 4.219 0 01-.422.436c-.761.677-1.735 1.021-2.894 1.021a5.713 5.713 0 01-5.708-5.707 5.713 5.713 0 015.708-5.707zm54.529 0c1.144 0 2.247.337 3.19.974a2.047 2.047 0 002.29-3.391 9.756 9.756 0 00-5.48-1.674c-5.403 0-9.799 4.395-9.799 9.798 0 5.404 4.396 9.799 9.799 9.799 2.162 0 4.105-.711 5.616-2.057a8.31 8.31 0 00.836-.863 2.046 2.046 0 00-3.136-2.629 4.14 4.14 0 01-.422.436c-.76.678-1.734 1.021-2.894 1.021a5.713 5.713 0 01-5.707-5.707 5.713 5.713 0 015.707-5.707z" fill="#000"/></svg>
